X: 1
T: Off She Goes
R: jig
M: 6/8
L: 1/8
K: Dmaj
|:F2A G2B|ABc d2A|F2A G2B|AFD E3|
F2A G2B|ABc d2e|f2d g2f|edc d3:|
|:faf d2f|gbg e2g|faf d2f|ecA A2g|
faf d2f|gbg e2g|f2d g2f|edc d3:||


Tune 1133	Setting 14399

